Frontend-v1-Original/public/images/logo-firebird.svg

<svg fill="none" height="13" viewBox="0 0 11 13" width="11" xmlns="http://www.w3.org/2000/svg" xmlns:xlink="http://www.w3.org/1999/xlink"><linearGradient id="a" gradientUnits="userSpaceOnUse" x1="5.566" x2="5.123" y1="-.622" y2="13.027"><stop offset=".03" stop-color="#fa9828"/><stop offset="1" stop-color="#f2313c"/></linearGradient><path d="m6.59079 11.9991c.12782-.0237.25796-.0509.39044-.0816 2.10071-.6003 3.61507-2.29034 3.61507-4.28368-.0006-.34587-.0475-.69009-.1395-1.02351-.0433.30311-.1483.59413-.3085.85507-.16022.26094-.37223.48627-.62293.66207 1.23963-3.17512-2.14046-4.10521-1.93966-6.03859-.10607.07655-.19808.17091-.27191.27889-.2036.30889-.3314.66148-.37301 1.02909-.04044.38137-.25797.55289-.53547.54592h-.01743c-.82341-.04602-2.1279-1.62242-.9252-3.94276l-2.9562 2.71914c-1.34284 1.32959-1.642639 2.48349-1.48716 3.47493.03565.22444.09309.44487.17152.65817.00217.00547.00403.01105.00557.01673.0516.13945.10947.27471.17361.40578.52431 1.42999-1.2884555 1.53388-1.230587-.67281-.0926455.33589-.1395497.68275-.13944282 1.03118 0 1.14971.37440482 2.20111 1.41743982 3.12488.6505-1.92636 1.37421-3.11581 1.96824-3.83952.23329-.29133.49849-.5556.79064-.78786.13322-.10991.28017-.20202.43716-.274-1.26963-.74045-1.2787-2.556-1.2787-2.556.5278.79064 1.47183 1.59802 2.95202 2.30709.04113.02022.08227.03974.1241.05857 2.07492.96773 1.52621 2.18577 1.52621 2.18577-.37162-.44273-1.14065-.8262-1.14065-.8262l.22799.78506c.81156.04462 1.22571.30817 1.41675.64074.38695.67351-.13945 1.62935-.13945 1.62935.03208-.19238-.16175-.64-.50269-1.03532-.21647-.26362-.49346-.47101-.80738-.60448-.17012-.06506-.35202-.0936-.53389-.08379s-.35964.05776-.52178.14073c-.16213.08298-.30501.19912-.41934.3409-.11434.14177-.19758.30601-.24432.48204-.30608 1.21452 1.31844 2.67802 1.31844 2.67802zm-1.1295-11.99770557-.00418.00488051c-.03974.04253016-.25727.27888606-.56196.62191706.32212-.365342.54662-.6058811.56614-.62679757z" fill="url(#a)"/><path d="m1.41744 10.7577c-1.045824-.92384-1.41743982-1.97525-1.41743982-3.12495-.00010688-.34844.04679722-.6953.13944282-1.03119-.00488.02719-.2189254 1.20131.539646 2.11466l-.31305-.05926s.276795 1.14273 1.051401 2.10074z" fill="#ba0000" opacity=".2"/><path d="m2.24599 4.42774.06972-.93915s-1.401406 1.57711-1.12252 3.36546c-.07842-.21329-.13587-.43372-.17152-.65817-.155474-.99144.14433-2.14533 1.48577-3.47283l2.9562-2.71914375c-.06693.07111605-2.9304 3.14235375-3.21765 4.42383375z" fill="#ba0000" opacity=".2"/><g fill="#fcab1b"><path d="m6.38584 3.94597c-1.26126.13944-1.84622-.87919-1.85459-.89453l.29074.1492c-.48805-1.4767.20916-2.63408.51315-3.039163l.12341-.15757075c-1.20061 2.31824375.10388 3.89465375.92729 3.94206375z" opacity=".5"/><path d="m9.51923 8.12704c.53197-2.11536-1.39444-3.12911-1.39444-3.12911l.48805.07391c-1.47809-1.53388-1.05209-2.93249-1.03606-2.982-.19801 1.93338 3.18212 2.86347 1.94245 6.0372z" opacity=".5"/><path d="m10.5993 7.63679c0 1.99335-1.5144 3.68341-3.61511 4.28371-.13247.0307-.26262.0579-.39044.0816 2.57412-.7942 3.07403-3.25952 3.07403-3.25952l.0746.61076c.87922-1.14692.71952-2.74006.71952-2.74006.0912.33352.1374.67774.1374 1.02351z" opacity=".5"/></g><path d="m7.42982 3.77607-.26285-.2008s-.07739.53337-.64353.35837c.22241-.03695.38904-.20916.42321-.53825.04161-.3676.16941-.7202.37301-1.02909.0258-.03625.05368-.06972.08227-.10458 0 0-.31096 1.01724.02789 1.51435z" fill="#ba0000" opacity=".2"/><path d="m1.25416 8.51333.08157-.17152s-.880582.59612-1.124608-.91474l.108069.70837c-.198626-.48531-.2629289-1.01515-.186157-1.53388-.057869 2.20809 1.754896 2.10281 1.230586.67282-.06414-.13155-.12201-.26681-.17361-.40578-.00154-.00568-.0034-.01127-.00557-.01674l-.00419-.02579c.1004.10458 1.05629 1.17062.07391 1.68726z" fill="#fcab1b" opacity=".5"/><path d="m10.457 6.61328s-.0565 1.03397-.2872 1.39931l-.0224-.25378s-.23352.32908-.62396.37161c.2507-.17579.46271-.40112.62296-.66206.1602-.26094.2652-.55196.3085-.85508z" fill="#ba0000" opacity=".2"/><path d="m4.61345 5.85538c-.15699.07199-.30394.16409-.43715.27401-.29244.23243-.55788.49694-.79134.78855-.41833.50687-.89593 1.24244-1.36934 2.30081.51176-2.21784 2.1056-3.37871 2.1056-3.37871-1.05001-1.25499-.78646-2.53926-.78646-2.53926s.00906 1.81416 1.27869 2.5546z" fill="#ba0000" opacity=".2"/></svg>

<svg width="11" height="13" viewBox="0 0 11 13" fill="none" xmlns="http://www.w3.org/2000/svg"><path d="M6.59079 11.9991C6.71861 11.9754 6.84875 11.9482 6.98123 11.9175C9.08194 11.3172 10.5963 9.62716 10.5963 7.63382C10.5957 7.28795 10.5488 6.94373 10.4568 6.61031C10.4135 6.91342 10.3085 7.20444 10.1483 7.46538C9.98808 7.72632 9.77607 7.95165 9.52537 8.12745C10.765 4.95233 7.38491 4.02224 7.58571 2.08886C7.47964 2.16541 7.38763 2.25977 7.3138 2.36775C7.1102 2.67664 6.9824 3.02923 6.94079 3.39684C6.90035 3.77821 6.68282 3.94973 6.40532 3.94276H6.38789C5.56448 3.89674 4.25999 2.32034 5.46269 0L2.50649 2.71914C1.16365 4.04873 0.863851 5.20263 1.01933 6.19407C1.05498 6.41851 1.11242 6.63894 1.19085 6.85224C1.19302 6.85771 1.19488 6.86329 1.19642 6.86897C1.24802 7.00842 1.30589 7.14368 1.37003 7.27475C1.89434 8.70474 0.0815745 8.80863 0.139443 6.60194C0.0467975 6.93783 -0.000106695 7.28469 1.82238e-07 7.63312C1.82238e-07 8.78283 0.374405 9.83423 1.41744 10.758C2.06794 8.83164 2.79165 7.64219 3.38568 6.91848C3.61897 6.62715 3.88417 6.36288 4.17632 6.13062C4.30954 6.02071 4.45649 5.9286 4.61348 5.85662C3.34385 5.11617 3.33478 3.30062 3.33478 3.30062C3.86258 4.09126 4.80661 4.89864 6.2868 5.60771C6.32793 5.62793 6.36907 5.64745 6.4109 5.66628C8.48582 6.63401 7.93711 7.85205 7.93711 7.85205C7.56549 7.40932 6.79646 7.02585 6.79646 7.02585L7.02445 7.81091C7.83601 7.85553 8.25016 8.11908 8.4412 8.45165C8.82815 9.12516 8.30175 10.081 8.30175 10.081C8.33383 9.88862 8.14 9.441 7.79906 9.04568C7.58259 8.78206 7.3056 8.57467 6.99168 8.4412C6.82156 8.37614 6.63966 8.3476 6.45779 8.35741C6.27592 8.36722 6.09815 8.41517 5.93601 8.49814C5.77388 8.58112 5.631 8.69726 5.51667 8.83904C5.40233 8.98081 5.31909 9.14505 5.27235 9.32108C4.96627 10.5356 6.59079 11.9991 6.59079 11.9991ZM5.46129 0.00139443L5.45711 0.00627494C5.41737 0.0488051 5.19984 0.285161 4.89515 0.628192C5.21727 0.26285 5.44177 0.0223109 5.46129 0.00139443Z" fill="url(#paint0_linear_13484_18038)"/><g style="mix-blend-mode:multiply" opacity=".2"><path d="M1.41744 10.7577C0.371616 9.83386 1.82238e-07 8.78245 1.82238e-07 7.63275C-0.000106695 7.28431 0.0467974 6.93745 0.139443 6.60156C0.134563 6.62875 -0.0794824 7.80287 0.679089 8.71622L0.366039 8.65696C0.366039 8.65696 0.642834 9.79969 1.41744 10.7577Z" fill="#BA0000"/></g><g style="mix-blend-mode:multiply" opacity=".2"><path d="M2.24599 4.42774L2.31571 3.48859C2.31571 3.48859 0.914304 5.0657 1.19319 6.85405C1.11477 6.64076 1.05732 6.42033 1.02167 6.19588C0.866196 5.20444 1.166 4.05055 2.50744 2.72305L5.46364 0.00390625C5.39671 0.0750223 2.53324 3.14626 2.24599 4.42774Z" fill="#BA0000"/></g><g style="mix-blend-mode:screen" opacity=".5"><path d="M6.38584 3.94597C5.12458 4.08541 4.53962 3.06678 4.53125 3.05144L4.82199 3.20064C4.33394 1.72394 5.03115 0.56656 5.33514 0.161477L5.45855 0.00390625C4.25794 2.32215 5.56243 3.89856 6.38584 3.94597Z" fill="#FCAB1B"/></g><g style="mix-blend-mode:screen" opacity=".5"><path d="M9.51923 8.12704C10.0512 6.01168 8.12479 4.99793 8.12479 4.99793L8.61284 5.07184C7.13475 3.53796 7.56075 2.13935 7.57678 2.08984C7.37877 4.02322 10.7589 4.95331 9.51923 8.12704Z" fill="#FCAB1B"/></g><g style="mix-blend-mode:screen" opacity=".5"><path d="M10.5993 7.63679C10.5993 9.63014 9.0849 11.3202 6.98419 11.9205C6.85172 11.9512 6.72157 11.9784 6.59375 12.0021C9.16787 11.2079 9.66778 8.74258 9.66778 8.74258L9.74238 9.35334C10.6216 8.20642 10.4619 6.61328 10.4619 6.61328C10.5531 6.9468 10.5993 7.29102 10.5993 7.63679Z" fill="#FCAB1B"/></g><g style="mix-blend-mode:multiply" opacity=".2"><path d="M7.42982 3.77607L7.16697 3.57527C7.16697 3.57527 7.08958 4.10864 6.52344 3.93364C6.74585 3.89669 6.91248 3.72448 6.94665 3.39539C6.98826 3.02779 7.11606 2.67519 7.31966 2.3663C7.34546 2.33005 7.37334 2.29658 7.40193 2.26172C7.40193 2.26172 7.09097 3.27896 7.42982 3.77607Z" fill="#BA0000"/></g><g style="mix-blend-mode:screen" opacity=".5"><path d="M1.25416 8.51333L1.33573 8.34181C1.33573 8.34181 0.455148 8.93793 0.211122 7.42707L0.319191 8.13544C0.120565 7.65013 0.0562621 7.12029 0.133034 6.60156C0.075165 8.80965 1.88793 8.70437 1.36362 7.27438C1.29948 7.14283 1.24161 7.00757 1.19001 6.8686C1.18847 6.86292 1.18661 6.85733 1.18444 6.85186L1.18025 6.82607C1.28065 6.93065 2.23654 7.99669 1.25416 8.51333Z" fill="#FCAB1B"/></g><g style="mix-blend-mode:multiply" opacity=".2"><path d="M10.457 6.61328C10.457 6.61328 10.4005 7.64725 10.1698 8.01259L10.1474 7.75881C10.1474 7.75881 9.91388 8.08789 9.52344 8.13042C9.77414 7.95463 9.98615 7.7293 10.1464 7.46836C10.3066 7.20742 10.4116 6.9164 10.4549 6.61328H10.457Z" fill="#BA0000"/></g><g style="mix-blend-mode:multiply" opacity=".2"><path d="M4.61345 5.85538C4.45646 5.92737 4.30951 6.01947 4.1763 6.12939C3.88386 6.36182 3.61842 6.62633 3.38496 6.91794C2.96663 7.42481 2.48903 8.16038 2.01562 9.21875C2.52738 7.00091 4.12122 5.84004 4.12122 5.84004C3.07121 4.58505 3.33476 3.30078 3.33476 3.30078C3.33476 3.30078 3.34382 5.11494 4.61345 5.85538Z" fill="#BA0000"/></g><defs><linearGradient id="paint0_linear_13484_18038" x1="5.566" y1="-.622" x2="5.123" y2="13.027" gradientUnits="userSpaceOnUse"><stop offset=".03" stop-color="#FA9828"/><stop offset="1" stop-color="#F2313C"/></linearGradient></defs></svg>
